actions/16/help-about.svg

<?xml version="1.0" encoding="UTF-8" standalone="no"?>
<!-- Created with Inkscape (http://www.inkscape.org/) -->

<svg
   xmlns:svg="http://www.w3.org/2000/svg"
   xmlns="http://www.w3.org/2000/svg"
   xmlns:xlink="http://www.w3.org/1999/xlink"
   version="1.1"
   width="16"
   height="16"
   id="svg2807">
  <defs
     id="defs2809">
    <linearGradient
       id="linearGradient3903">
      <stop
         id="stop3905"
         style="stop-color:#964e00;stop-opacity:1"
         offset="0" />
      <stop
         id="stop3907"
         style="stop-color:#b99300;stop-opacity:1"
         offset="1" />
    </linearGradient>
    <linearGradient
       x1="21.483376"
       y1="36.345936"
       x2="21.483376"
       y2="13.090934"
       id="linearGradient2850"
       xlink:href="#linearGradient3903"
       gradientUnits="userSpaceOnUse"
       gradientTransform="matrix(0.5531951,0,0,0.5781824,-3.8848294,-5.2726386)" />
    <linearGradient
       id="linearGradient2250">
      <stop
         id="stop2252"
         style="stop-color:#ffc349;stop-opacity:1"
         offset="0" />
      <stop
         id="stop2256"
         style="stop-color:#ff921a;stop-opacity:1"
         offset="1" />
    </linearGradient>
    <linearGradient
       x1="21.483376"
       y1="21.671062"
       x2="21.483376"
       y2="33.409534"
       id="linearGradient2848"
       xlink:href="#linearGradient2250"
       gradientUnits="userSpaceOnUse"
       gradientTransform="matrix(0.5531951,0,0,0.5781824,-3.8848294,-5.2726386)" />
    <linearGradient
       id="linearGradient3230">
      <stop
         id="stop3232"
         style="stop-color:#ffefa7;stop-opacity:1"
         offset="0" />
      <stop
         id="stop3234"
         style="stop-color:#ffc64c;stop-opacity:1"
         offset="1" />
    </linearGradient>
    <linearGradient
       x1="24.097157"
       y1="9.5958176"
       x2="23.673159"
       y2="22.839001"
       id="linearGradient2842"
       xlink:href="#linearGradient3230"
       gradientUnits="userSpaceOnUse"
       gradientTransform="matrix(0.5115713,0,0,0.5681819,-4.3053904,-4.3408645)" />
    <linearGradient
       id="linearGradient3623">
      <stop
         id="stop3625"
         style="stop-color:white;stop-opacity:1"
         offset="0" />
      <stop
         id="stop3627"
         style="stop-color:white;stop-opacity:0"
         offset="1" />
    </linearGradient>
    <linearGradient
       x1="8.2862873"
       y1="7.8761549"
       x2="8.2862873"
       y2="10.069564"
       id="linearGradient3629"
       xlink:href="#linearGradient3623"
       gradientUnits="userSpaceOnUse" />
  </defs>
  <g
     id="layer1">
    <path
       d="M 7.9996686,0.49996704 C 8.4909378,0.81487151 8.6789888,1.4712075 8.97348,1.9688878 9.4856938,2.9693667 9.8903831,4.032048 10.47011,4.993237 c 0.501852,0.3867353 1.208698,0.3189688 1.804325,0.4633537 1.039321,0.183577 2.11714,0.2412183 3.111325,0.6283479 0.423809,0.4211701 -0.453674,0.9605871 -0.670727,1.3280668 -0.813665,0.906036 -1.7403,1.7003957 -2.505093,2.6532976 -0.196831,0.618355 0.08326,1.30003 0.135937,1.936709 0.15412,1.089829 0.434734,2.179009 0.389683,3.286874 -0.252281,0.551422 -1.014283,-0.154121 -1.415745,-0.256317 C 10.243927,14.504754 9.2347488,13.829135 8.1313178,13.363383 7.5078177,13.358813 6.9740776,13.847877 6.4110065,14.096982 5.4669375,14.586957 4.562547,15.202465 3.5405197,15.500033 2.9607911,15.41966 3.2796218,14.531478 3.3362662,14.013556 3.4849966,12.780693 3.7879257,11.568778 3.8707606,10.328025 3.6822472,9.7068449 3.0722859,9.3274284 2.6716134,8.8447042 1.9340257,8.0576965 1.0944686,7.3489214 0.50787085,6.4249642 0.40186047,5.8238696 1.4151185,5.9265409 1.7973809,5.7625869 2.9651896,5.5294515 4.1615885,5.4560652 5.316214,5.1549905 5.8232062,4.7756502 5.9799695,4.0520931 6.2954119,3.5046491 6.7836264,2.528277 7.1691416,1.4747211 7.8286318,0.60611585 7.8764796,0.56007865 7.9297365,0.50368233 7.9996686,0.49996704 z"
       id="path1307"
       style="fill:url(#linearGradient2848);fill-opacity:1;fill-rule:nonzero;stroke:url(#linearGradient2850);stroke-width:0.99999994;stroke-linecap:butt;stroke-linejoin:round;stroke-miterlimit:4;stroke-opacity:1;stroke-dasharray:none;stroke-dashoffset:0;marker:none;visibility:visible;display:inline;overflow:visible" />
    <path
       d="M 7.9723182,1.2747726 5.7413624,5.6987682 1.1243489,6.4218412 3.9001231,9.5531064 C 5.1099883,8.2468044 6.0577468,7.917954 7.9723182,7.9539126 9.886891,7.9898686 10.56467,8.0052018 12.084574,9.5028089 L 14.861392,6.3935628 10.300954,5.7428938 7.9723182,1.2747726 z"
       id="path1322"
       style="fill:url(#linearGradient2842);fill-opacity:1;fill-rule:nonzero;stroke:none;stroke-width:1;marker:none;visibility:visible;display:inline;overflow:visible" />
    <path
       d="M 5.1701796,10.186392 C 4.115471,9.0122371 3.058833,7.9290101 2.0041247,6.7548528 3.4850165,6.4866555 4.6263188,6.3332379 6.1072105,6.06504 6.7967897,4.5991678 7.282739,3.7346627 7.9723178,2.2687899 c 0.6895794,1.4658728 1.3987708,2.2906886 2.0883502,3.7565607 1.480893,0.268198 2.352088,0.4911007 3.83298,0.7592986 -1.054708,1.1741568 -2.112505,2.1952886 -3.167214,3.3694458"
       id="path1309"
       style="opacity:0.4;fill:none;stroke:url(#linearGradient3629);stroke-width:1;stroke-linecap:butt;stroke-linejoin:miter;stroke-miterlimit:4;stroke-opacity:1;stroke-dasharray:none;stroke-dashoffset:0;marker:none;visibility:visible;display:inline;overflow:visible" />
  </g>
</svg>

<?xml version="1.0" encoding="UTF-8" standalone="no"?>
<!-- Created with Inkscape (http://www.inkscape.org/) -->
<svg
   xmlns:dc="http://purl.org/dc/elements/1.1/"
   xmlns:cc="http://creativecommons.org/ns#"
   xmlns:rdf="http://www.w3.org/1999/02/22-rdf-syntax-ns#"
   xmlns:svg="http://www.w3.org/2000/svg"
   xmlns="http://www.w3.org/2000/svg"
   xmlns:xlink="http://www.w3.org/1999/xlink"
   xmlns:sodipodi="http://sodipodi.sourceforge.net/DTD/sodipodi-0.dtd"
   xmlns:inkscape="http://www.inkscape.org/namespaces/inkscape"
   width="16px"
   height="16px"
   id="svg2807"
   sodipodi:version="0.32"
   inkscape:version="0.46"
   sodipodi:docname="gnome-app-install-star.svg"
   inkscape:output_extension="org.inkscape.output.svg.inkscape">
  <defs
     id="defs2809">
    <linearGradient
       id="linearGradient3903">
      <stop
         style="stop-color:#964e00;stop-opacity:1;"
         offset="0"
         id="stop3905" />
      <stop
         style="stop-color:#b99300;stop-opacity:1;"
         offset="1"
         id="stop3907" />
    </linearGradient>
    <linearGradient
       inkscape:collect="always"
       xlink:href="#linearGradient3903"
       id="linearGradient2850"
       gradientUnits="userSpaceOnUse"
       gradientTransform="matrix(0.5531951,0,0,0.5781824,-3.8848294,-5.2726386)"
       x1="21.483376"
       y1="36.345936"
       x2="21.483376"
       y2="13.090934" />
    <linearGradient
       id="linearGradient2250">
      <stop
         id="stop2252"
         offset="0"
         style="stop-color:#ffc349;stop-opacity:1;" />
      <stop
         id="stop2256"
         offset="1"
         style="stop-color:#ff921a;stop-opacity:1" />
    </linearGradient>
    <linearGradient
       inkscape:collect="always"
       xlink:href="#linearGradient2250"
       id="linearGradient2848"
       gradientUnits="userSpaceOnUse"
       gradientTransform="matrix(0.5531951,0,0,0.5781824,-3.8848294,-5.2726386)"
       x1="21.483376"
       y1="21.671062"
       x2="21.483376"
       y2="33.409534" />
    <linearGradient
       id="linearGradient3230"
       inkscape:collect="always">
      <stop
         id="stop3232"
         offset="0"
         style="stop-color:#ffefa7;stop-opacity:1" />
      <stop
         id="stop3234"
         offset="1"
         style="stop-color:#ffc64c;stop-opacity:1" />
    </linearGradient>
    <linearGradient
       inkscape:collect="always"
       xlink:href="#linearGradient3230"
       id="linearGradient2842"
       gradientUnits="userSpaceOnUse"
       gradientTransform="matrix(0.5115713,0,0,0.5681819,-4.3053904,-4.3408645)"
       x1="24.097157"
       y1="9.5958176"
       x2="23.673159"
       y2="22.839001" />
    <linearGradient
       id="linearGradient3623">
      <stop
         style="stop-color:#ffffff;stop-opacity:1;"
         offset="0"
         id="stop3625" />
      <stop
         style="stop-color:#ffffff;stop-opacity:0;"
         offset="1"
         id="stop3627" />
    </linearGradient>
    <linearGradient
       inkscape:collect="always"
       xlink:href="#linearGradient3623"
       id="linearGradient3629"
       x1="8.2862873"
       y1="7.8761549"
       x2="8.2862873"
       y2="10.069564"
       gradientUnits="userSpaceOnUse" />
  </defs>
  <sodipodi:namedview
     id="base"
     pagecolor="#ffffff"
     bordercolor="#666666"
     borderopacity="1.0"
     inkscape:pageopacity="0.0"
     inkscape:pageshadow="2"
     inkscape:zoom="22.197802"
     inkscape:cx="8"
     inkscape:cy="8"
     inkscape:current-layer="layer1"
     showgrid="true"
     inkscape:grid-bbox="true"
     inkscape:document-units="px"
     inkscape:window-width="640"
     inkscape:window-height="679"
     inkscape:window-x="798"
     inkscape:window-y="132" />
  <metadata
     id="metadata2812">
    <rdf:RDF>
      <cc:Work
         rdf:about="">
        <dc:format>image/svg+xml</dc:format>
        <dc:type
           rdf:resource="http://purl.org/dc/dcmitype/StillImage" />
      </cc:Work>
    </rdf:RDF>
  </metadata>
  <g
     id="layer1"
     inkscape:label="Layer 1"
     inkscape:groupmode="layer">
    <path
       style="display:inline;fill:url(#linearGradient2848);fill-opacity:1;fill-rule:nonzero;stroke:url(#linearGradient2850);stroke-width:0.99999994000000003;stroke-linecap:butt;stroke-linejoin:round;marker:none;marker-start:none;marker-mid:none;marker-end:none;stroke-miterlimit:4;stroke-dasharray:none;stroke-dashoffset:0;stroke-opacity:1;visibility:visible;overflow:visible"
       d="M 7.9996686,0.49996704 C 8.4909378,0.81487151 8.6789888,1.4712075 8.97348,1.9688878 C 9.4856938,2.9693667 9.8903831,4.032048 10.47011,4.993237 C 10.971962,5.3799723 11.678808,5.3122058 12.274435,5.4565907 C 13.313756,5.6401677 14.391575,5.697809 15.38576,6.0849386 C 15.809569,6.5061087 14.932086,7.0455257 14.715033,7.4130054 C 13.901368,8.3190414 12.974733,9.1134011 12.20994,10.066303 C 12.013109,10.684658 12.293201,11.366333 12.345877,12.003012 C 12.499997,13.092841 12.780611,14.182021 12.73556,15.289886 C 12.483279,15.841308 11.721277,15.135765 11.319815,15.033569 C 10.243927,14.504754 9.2347488,13.829135 8.1313178,13.363383 C 7.5078177,13.358813 6.9740776,13.847877 6.4110065,14.096982 C 5.4669375,14.586957 4.562547,15.202465 3.5405197,15.500033 C 2.9607911,15.41966 3.2796218,14.531478 3.3362662,14.013556 C 3.4849966,12.780693 3.7879257,11.568778 3.8707606,10.328025 C 3.6822472,9.7068449 3.0722859,9.3274284 2.6716134,8.8447042 C 1.9340257,8.0576965 1.0944686,7.3489214 0.50787085,6.4249642 C 0.40186047,5.8238696 1.4151185,5.9265409 1.7973809,5.7625869 C 2.9651896,5.5294515 4.1615885,5.4560652 5.316214,5.1549905 C 5.8232062,4.7756502 5.9799695,4.0520931 6.2954119,3.5046491 C 6.7836264,2.528277 7.1691416,1.4747211 7.8286318,0.60611585 C 7.8764796,0.56007865 7.9297365,0.50368233 7.9996686,0.49996704 z"
       id="path1307"
       sodipodi:nodetypes="cccccccccccccccccccccc" />
    <path
       sodipodi:nodetypes="cccczcccc"
       id="path1322"
       d="M 7.9723182,1.2747726 L 5.7413624,5.6987682 L 1.1243489,6.4218412 L 3.9001231,9.5531064 C 5.1099883,8.2468044 6.0577468,7.917954 7.9723182,7.9539126 C 9.886891,7.9898686 10.56467,8.0052018 12.084574,9.5028089 L 14.861392,6.3935628 L 10.300954,5.7428938 L 7.9723182,1.2747726 z"
       style="display:inline;fill:url(#linearGradient2842);fill-opacity:1;fill-rule:nonzero;stroke:none;stroke-width:1;stroke-linecap:butt;stroke-linejoin:round;marker:none;marker-start:none;marker-mid:none;marker-end:none;stroke-miterlimit:4;stroke-dasharray:none;stroke-dashoffset:0;stroke-opacity:1;visibility:visible;overflow:visible" />
    <path
       style="display:inline;opacity:0.40000000000000002;fill:none;fill-opacity:1;fill-rule:nonzero;stroke:url(#linearGradient3629);stroke-width:1;stroke-linecap:butt;stroke-linejoin:miter;marker:none;marker-start:none;marker-mid:none;marker-end:none;stroke-miterlimit:4;stroke-dasharray:none;stroke-dashoffset:0;stroke-opacity:1;visibility:visible;overflow:visible"
       d="M 5.1701796,10.186392 C 4.115471,9.0122371 3.058833,7.9290101 2.0041247,6.7548528 C 3.4850165,6.4866555 4.6263188,6.3332379 6.1072105,6.06504 C 6.7967897,4.5991678 7.282739,3.7346627 7.9723178,2.2687899 C 8.6618972,3.7346627 9.3710886,4.5594785 10.060668,6.0253506 C 11.541561,6.2935486 12.412756,6.5164513 13.893648,6.7846492 C 12.83894,7.958806 11.781143,8.9799378 10.726434,10.154095"
       id="path1309"
       sodipodi:nodetypes="ccccccc" />
  </g>
</svg>
